src/svg/cell.svg

<svg height="35" viewBox="0 0 35 35" width="35" xmlns="http://www.w3.org/2000/svg"><g fill="none" fill-rule="evenodd"><path d="m18.992 24h-3.98v-14h3.98z" fill="#000"/><path d="m10 15.005h13.985v3.98h-13.985z" fill="#000"/><g fill="#fff"><path d="m17.969 23h-1.969v-11.986h1.969z"/><path d="m11.016 16.031h11.967v1.969h-11.967z"/></g></g></svg>

<?xml version="1.0" encoding="UTF-8" standalone="no"?>
<svg width="35px" height="35px" viewBox="0 0 35 35" version="1.1" xmlns="http://www.w3.org/2000/svg" xmlns:xlink="http://www.w3.org/1999/xlink">
    <defs></defs>
    <g id="Page-1" stroke="none" stroke-width="1" fill="none" fill-rule="evenodd">
        <g id="cell">
            <g id="bg-copy" fill="#FFFFFF" opacity="0.00999999978">
                <rect id="bg" x="0" y="0" width="35" height="35"></rect>
            </g>
            <path d="M18.992,24 L15.012,24 L15.012,10 L18.992,10 L18.992,24 Z" id="line-vertical-border" fill="#000000"></path>
            <path d="M10,15.005 L23.985,15.005 L23.985,18.985 L10,18.985 L10,15.005 Z" id="line-horizontal-border" fill="#000000"></path>
            <path d="M17.969,23 L16,23 L16,11.014 L17.969,11.014 L17.969,23 Z" id="line-vertical" fill="#FFFFFF"></path>
            <path d="M11.016,16.031 L22.983,16.031 L22.983,18 L11.016,18 L11.016,16.031 Z" id="line-horizontal" fill="#FFFFFF"></path>
        </g>
    </g>
</svg>
